icons/lines/direct-send.svg

<svg xmlns="http://www.w3.org/2000/svg" width="24" height="24" viewBox="0 0 24 24" fill="none" stroke="currentColor" stroke-width="2" stroke-linecap="round" stroke-linejoin="round" >
  <path d="M12 9V2L10 4"/>
  <path d="M12 2L14 4"/>
  <path d="M1.97998 13H6.38998C6.76998 13 7.10998 13.21 7.27998 13.55L8.44998 15.89C8.78998 16.57 9.47998 17 10.24 17H13.77C14.53 17 15.22 16.57 15.56 15.89L16.73 13.55C16.9 13.21 17.25 13 17.62 13H21.98"/>
  <path d="M7 5.13C3.46 5.65 2 7.73 2 12V15C2 20 4 22 9 22H15C20 22 22 20 22 15V12C22 7.73 20.54 5.65 17 5.13"/>
  </svg>

<svg xmlns="http://www.w3.org/2000/svg" width="24" height="24" viewBox="0 0 24 24" fill="none" stroke="currentColor" stroke-width="2" stroke-linecap="round" stroke-linejoin="round">
  <path d="M1.98 13h4.41a1 1 0 0 1 .89.55l1.17 2.34A2 2 0 0 0 10.24 17h3.53a2 2 0 0 0 1.79-1.11l1.17-2.34a1 1 0 0 1 .89-.55h4.36" />
  <path d="m12 2 2 2" />
  <path d="M12 9V2l-2 2" />
  <path d="M7 5.13c-3.54.52-5 2.6-5 6.87v3c0 5 2 7 7 7h6c5 0 7-2 7-7v-3c0-4.27-1.46-6.35-5-6.87" />
</svg>
